dist/images/advant-2.svg

<svg width="64" height="64" fill="none" xmlns="http://www.w3.org/2000/svg"><path d="M49 29c-7.72 0-14-6.28-14-14S41.28 1 49 1s14 6.28 14 14-6.28 14-14 14zm0-23c-4.963 0-9 4.037-9 9s4.037 9 9 9 9-4.037 9-9-4.037-9-9-9zM21 45H9V35h12v10zm8 10H19v-8h10v8zM9 48h8v4H9v-4zm14-8h6v4h-6v-4zm20 10V38h-8v17h20v-5H43z" fill="#0094FF"/><path d="M49 25c5.514 0 10-4.486 10-10S54.514 5 49 5 39 9.486 39 15s4.486 10 10 10zm0-18c4.411 0 8 3.589 8 8s-3.589 8-8 8-8-3.589-8-8 3.589-8 8-8z" fill="#345A9C"/><path d="M60 35h-1v-4h-6v-2.59c-.648.193-1.317.332-2 .43V43c0 1.103-.897 2-2 2s-2-.897-2-2V28.84a13.801 13.801 0 01-2-.43V31h-6.528a8.18 8.18 0 00-5.851 2.453A2.99 2.99 0 0033 32V4c0-1.654-1.346-3-3-3H10C8.346 1 7 2.346 7 4v27H5v4H4c-1.654 0-3 1.346-3 3v22c0 1.654 1.346 3 3 3h56c1.654 0 3-1.346 3-3V38c0-1.654-1.346-3-3-3zM4 61a1 1 0 01-1-1V38a1 1 0 011-1h1v22h20.528c1.777 0 3.419.739 4.579 2H4zm27-1.907A8.181 8.181 0 0025.528 57H7V33h18.528A6.195 6.195 0 0131 36.268v22.825zM31 32a.987.987 0 01-.38.767A8.194 8.194 0 0025.528 31H9v-4h22v5zm0-7H9v-6h22v6zm0-8H9v-6h22v6zm0-8H9V4a1 1 0 011-1h20a1 1 0 011 1v5zm2 27.268A6.195 6.195 0 0138.472 33H45v10c0 2.206 1.794 4 4 4s4-1.794 4-4V33h4v24H38.472c-2.07 0-3.993.771-5.472 2.093V36.268zM61 60a1 1 0 01-1 1H33.893a6.196 6.196 0 014.579-2H59V37h1a1 1 0 011 1v22z" fill="#345A9C"/><path d="M19 5h2v2h-2V5zm-4 0h2v2h-2V5zm-4 0h2v2h-2V5zm0 16h2v2h-2v-2zm4 0h2v2h-2v-2zm4 0h2v2h-2v-2zm8-8h2v2h-2v-2zm-8 0h2v2h-2v-2zm4 0h2v2h-2v-2zM9 47h8v2H9v-2zm0 4h8v2H9v-2zm14-8h6v2h-6v-2zm0-4h6v2h-6v-2zm12-2h8v2h-8v-2zm0 4h8v2h-8v-2zm0 4h8v2h-8v-2zm0 4h20v2H35v-2zm0 4h2v2h-2v-2zm4 0h16v2H39v-2z" fill="#345A9C"/></svg>

<svg width="64" height="64" viewBox="0 0 64 64" fill="none" xmlns="http://www.w3.org/2000/svg">
<path d="M49 29C41.28 29 35 22.72 35 15C35 7.28 41.28 1 49 1C56.72 1 63 7.28 63 15C63 22.72 56.72 29 49 29ZM49 6C44.037 6 40 10.037 40 15C40 19.963 44.037 24 49 24C53.963 24 58 19.963 58 15C58 10.037 53.963 6 49 6Z" fill="#0094FF"/>
<path d="M21 45H9V35H21V45Z" fill="#0094FF"/>
<path d="M29 55H19V47H29V55Z" fill="#0094FF"/>
<path d="M9 48H17V52H9V48Z" fill="#0094FF"/>
<path d="M23 40H29V44H23V40Z" fill="#0094FF"/>
<path d="M43 50V38H35V55H55V50H43Z" fill="#0094FF"/>
<path d="M49 25C54.514 25 59 20.514 59 15C59 9.486 54.514 5 49 5C43.486 5 39 9.486 39 15C39 20.514 43.486 25 49 25ZM49 7C53.411 7 57 10.589 57 15C57 19.411 53.411 23 49 23C44.589 23 41 19.411 41 15C41 10.589 44.589 7 49 7Z" fill="#345A9C"/>
<path d="M60 35H59V31H53V28.41C52.352 28.603 51.683 28.742 51 28.84V43C51 44.103 50.103 45 49 45C47.897 45 47 44.103 47 43V28.84C46.317 28.742 45.648 28.604 45 28.41V31H38.472C36.22 31 34.141 31.909 32.621 33.453C32.861 33.02 33 32.525 33 32V4C33 2.346 31.654 1 30 1H10C8.346 1 7 2.346 7 4V31H5V35H4C2.346 35 1 36.346 1 38V60C1 61.654 2.346 63 4 63H60C61.654 63 63 61.654 63 60V38C63 36.346 61.654 35 60 35ZM4 61C3.448 61 3 60.552 3 60V38C3 37.448 3.448 37 4 37H5V59H25.528C27.305 59 28.947 59.739 30.107 61H4ZM31 59.093C29.521 57.771 27.599 57 25.528 57H7V33H25.528C27.835 33 29.907 34.252 31 36.268V59.093ZM31 32C31 32.311 30.848 32.582 30.62 32.767C29.198 31.645 27.424 31 25.528 31H9V27H31V32ZM31 25H9V19H31V25ZM31 17H9V11H31V17ZM31 9H9V4C9 3.448 9.448 3 10 3H30C30.552 3 31 3.448 31 4V9ZM33 36.268C34.093 34.252 36.165 33 38.472 33H45V43C45 45.206 46.794 47 49 47C51.206 47 53 45.206 53 43V33H57V57H38.472C36.402 57 34.479 57.771 33 59.093V36.268ZM61 60C61 60.552 60.552 61 60 61H33.893C35.053 59.739 36.695 59 38.472 59H59V37H60C60.552 37 61 37.448 61 38V60Z" fill="#345A9C"/>
<path d="M19 5H21V7H19V5Z" fill="#345A9C"/>
<path d="M15 5H17V7H15V5Z" fill="#345A9C"/>
<path d="M11 5H13V7H11V5Z" fill="#345A9C"/>
<path d="M11 21H13V23H11V21Z" fill="#345A9C"/>
<path d="M15 21H17V23H15V21Z" fill="#345A9C"/>
<path d="M19 21H21V23H19V21Z" fill="#345A9C"/>
<path d="M27 13H29V15H27V13Z" fill="#345A9C"/>
<path d="M19 13H21V15H19V13Z" fill="#345A9C"/>
<path d="M23 13H25V15H23V13Z" fill="#345A9C"/>
<path d="M9 47H17V49H9V47Z" fill="#345A9C"/>
<path d="M9 51H17V53H9V51Z" fill="#345A9C"/>
<path d="M23 43H29V45H23V43Z" fill="#345A9C"/>
<path d="M23 39H29V41H23V39Z" fill="#345A9C"/>
<path d="M35 37H43V39H35V37Z" fill="#345A9C"/>
<path d="M35 41H43V43H35V41Z" fill="#345A9C"/>
<path d="M35 45H43V47H35V45Z" fill="#345A9C"/>
<path d="M35 49H55V51H35V49Z" fill="#345A9C"/>
<path d="M35 53H37V55H35V53Z" fill="#345A9C"/>
<path d="M39 53H55V55H39V53Z" fill="#345A9C"/>
</svg>
